X:1119
T:I have been courting at a Lass.
M:C
L:1/8
Q:1/4=112
I: :: ::
Z:Jack Campin * www.campin.me.uk * 2009
K:D
A   |d>d      df  e>d e>f  |AF  AB       d3A|dd d>f e>d e>f|AF AB d3:|
f/g/|a/f/e/d/ d>e f3   f/g/|a>f d/e/f/g/ a3b|af fd  e>d ef |AF AB d3:|

